build/img/footer-logo.svg

<svg width="129" height="92" viewBox="0 0 129 92" fill="none" xmlns="http://www.w3.org/2000/svg">
<path d="M68 35V3" stroke="white" stroke-width="0.5"/>
<path d="M6.792 68.48C5.352 68.48 4.272 68.576 2.424 68.72V86H3.504V78.704C4.512 78.8 5.616 78.872 6.768 78.872C10.632 78.872 12.936 76.928 12.936 73.616C12.936 70.376 10.656 68.48 6.792 68.48ZM6.792 77.888C5.592 77.888 4.488 77.816 3.504 77.72V69.608C4.584 69.512 5.568 69.464 6.816 69.464C9.984 69.464 11.832 71 11.832 73.616C11.832 76.304 9.936 77.888 6.792 77.888ZM29.4516 85.136L29.2116 81.848C29.0436 79.568 27.8196 78.056 25.5396 77.552C27.8676 76.928 29.1876 75.416 29.1876 73.232C29.1876 70.256 26.8116 68.48 22.8036 68.48C21.4356 68.48 20.4276 68.576 18.6756 68.72V86H19.7556V78.128H23.7636C26.5236 78.128 27.9636 79.544 28.1316 81.944L28.3716 85.28C28.4196 85.928 28.6836 86.24 29.0436 86.24C29.2836 86.24 29.4996 86.216 29.6916 86.12C29.5476 85.784 29.4756 85.472 29.4516 85.136ZM22.8276 69.464C26.1396 69.464 28.0836 70.904 28.0836 73.304C28.0836 75.704 26.1156 77.144 22.8036 77.144H19.7556V69.584C20.7636 69.512 21.6756 69.464 22.8276 69.464ZM36.9212 86V69.536C36.9212 68.792 36.6092 68.48 36.2492 68.48C36.1052 68.48 35.9612 68.504 35.8412 68.6V86H36.9212ZM54.7069 86H55.9309L50.0029 69.176C49.8349 68.672 49.5709 68.48 49.1629 68.48C48.9469 68.48 48.7309 68.528 48.5149 68.6L42.3949 86H43.6189L45.2269 81.224H53.0989L54.7069 86ZM45.5629 80.24L49.1629 69.584L52.7629 80.24H45.5629ZM72.5428 68.72L72.6148 83.888L62.6548 69.176C62.3428 68.72 62.1028 68.48 61.7908 68.48C61.6228 68.48 61.5028 68.528 61.4068 68.6V86H62.4868L62.4148 70.808L72.7828 86H73.6228V68.72H72.5428ZM81.9493 85.016V77.528H88.7893V76.544H81.9493V69.704H89.6293V68.72H80.8693V86H89.8933V85.016H81.9493ZM106.842 85.136L106.602 81.848C106.434 79.568 105.21 78.056 102.93 77.552C105.258 76.928 106.578 75.416 106.578 73.232C106.578 70.256 104.202 68.48 100.194 68.48C98.8262 68.48 97.8182 68.576 96.0662 68.72V86H97.1462V78.128H101.154C103.914 78.128 105.354 79.544 105.522 81.944L105.762 85.28C105.81 85.928 106.074 86.24 106.434 86.24C106.674 86.24 106.89 86.216 107.082 86.12C106.938 85.784 106.866 85.472 106.842 85.136ZM100.218 69.464C103.53 69.464 105.474 70.904 105.474 73.304C105.474 75.704 103.506 77.144 100.194 77.144H97.1462V69.584C98.1542 69.512 99.0662 69.464 100.218 69.464ZM123.768 86H124.992L119.064 69.176C118.896 68.672 118.632 68.48 118.224 68.48C118.008 68.48 117.792 68.528 117.576 68.6L111.456 86H112.68L114.288 81.224H122.16L123.768 86ZM114.624 80.24L118.224 69.584L121.824 80.24H114.624Z" fill="white"/>
<path d="M64.6851 2.03604C64.7203 2.00778 64.7528 1.98168 64.7822 1.95806L64.8052 2.15719L58.5425 6.76359L58.5175 6.54742L59.8418 5.42513L59.9335 5.34739L59.8594 5.25272L59.7609 5.32977L59.8593 5.25267L59.8593 5.25258L59.8591 5.25232L59.8584 5.25145L59.8559 5.24828L59.8464 5.23642C59.8381 5.22614 59.826 5.21119 59.8102 5.19212C59.7787 5.15398 59.7326 5.09933 59.6736 5.03253C59.5557 4.89903 59.3863 4.71663 59.1794 4.52058C58.7681 4.13076 58.1991 3.6774 57.5873 3.45505C55.4406 2.67477 53.4534 3.1852 52.0492 4.61281C50.593 6.09338 50.9652 8.41213 52.1193 9.80457C52.4647 10.2213 52.9728 10.4168 53.5215 10.4836C54.0701 10.5505 54.6727 10.4906 55.2277 10.3839C55.3504 10.3603 55.4711 10.3344 55.5887 10.3069C55.5698 10.3132 55.5509 10.3194 55.5318 10.3256C54.5759 10.6343 53.3786 10.7667 52.3393 10.1156C51.0388 9.30072 50.489 7.62838 50.9139 5.90082C51.3377 4.17781 52.7334 2.40706 55.3149 1.43543C57.213 0.721048 58.7531 0.915275 59.9404 1.45315C61.1316 1.99283 61.9757 2.88248 62.4674 3.56806L62.5371 3.66532L62.6373 3.59987C62.9548 3.39245 63.5372 2.94449 64.0359 2.55209C64.2862 2.35513 64.517 2.17096 64.6851 2.03604Z" fill="white" stroke="white" stroke-width="0.25"/>
<path fill-rule="evenodd" clip-rule="evenodd" d="M70.5 0L76.5 4.5V32C76 34 74 36.5 71 36.5C67.861 36.5 65.6739 35.0127 65.1313 33H64.5V42.5C64.3333 44.6667 62.8 48.7 58 49.5C58.0147 49.4963 58.0299 49.4926 58.0457 49.4886C58.7464 49.3147 60.5 48.8796 60.5 46.5C60.5 46.0284 60.5059 44.7978 60.5144 43.0328C60.551 35.4414 60.6352 17.966 60.5 8.5L59 7.5H60L70.5 0ZM64.5 30.5L68 28V29V32.5V33.5C68 33.5 68 35.5 70.5 35.5C72.5 35.5 73 33.5 73 33.5V6L68.5 3L64.5 6V30.5Z" fill="white"/>
<path d="M56.0919 39C56.5919 41 59.5919 43 59.5919 43C59.5919 43 56.726 40.3391 56.5919 38.5C56.3366 35 59.7585 33.3333 61.5918 32.5C57.0918 34 55.5919 37 56.0919 39Z" fill="white"/>
<path fill-rule="evenodd" clip-rule="evenodd" d="M78.3904 2.31226L76.3904 4.81226L75.6096 4.18756L77.2266 2.31244L78.3904 2.31226Z" fill="white"/>
</svg>

<svg width="129" height="92" fill="none" xmlns="http://www.w3.org/2000/svg"><path d="M68 35V3" stroke="#fff" stroke-width=".5"/><path d="M6.792 68.48c-1.44 0-2.52.096-4.368.24V86h1.08v-7.296c1.008.096 2.112.168 3.264.168 3.864 0 6.168-1.944 6.168-5.256 0-3.24-2.28-5.136-6.144-5.136zm0 9.408c-1.2 0-2.304-.072-3.288-.168v-8.112a35.466 35.466 0 0 1 3.312-.144c3.168 0 5.016 1.536 5.016 4.152 0 2.688-1.896 4.272-5.04 4.272zm22.66 7.248l-.24-3.288c-.168-2.28-1.392-3.792-3.672-4.296 2.328-.624 3.648-2.136 3.648-4.32 0-2.976-2.376-4.752-6.384-4.752-1.368 0-2.376.096-4.128.24V86h1.08v-7.872h4.008c2.76 0 4.2 1.416 4.368 3.816l.24 3.336c.048.648.312.96.672.96.24 0 .456-.024.648-.12a2.954 2.954 0 0 1-.24-.984zm-6.624-15.672c3.312 0 5.256 1.44 5.256 3.84s-1.968 3.84-5.28 3.84h-3.048v-7.56c1.008-.072 1.92-.12 3.072-.12zM36.92 86V69.536c0-.744-.312-1.056-.672-1.056a.628.628 0 0 0-.408.12V86h1.08zm17.786 0h1.224l-5.928-16.824c-.168-.504-.432-.696-.84-.696-.216 0-.432.048-.648.12L42.395 86h1.224l1.608-4.776h7.872L54.707 86zm-9.144-5.76l3.6-10.656 3.6 10.656h-7.2zm26.98-11.52l.072 15.168-9.96-14.712c-.312-.456-.552-.696-.864-.696a.61.61 0 0 0-.384.12V86h1.08l-.072-15.192L72.783 86h.84V68.72h-1.08zm9.406 16.296v-7.488h6.84v-.984h-6.84v-6.84h7.68v-.984h-8.76V86h9.024v-.984H81.95zm24.893.12l-.24-3.288c-.168-2.28-1.392-3.792-3.672-4.296 2.328-.624 3.648-2.136 3.648-4.32 0-2.976-2.376-4.752-6.384-4.752-1.368 0-2.376.096-4.128.24V86h1.08v-7.872h4.008c2.76 0 4.2 1.416 4.368 3.816l.24 3.336c.048.648.312.96.672.96.24 0 .456-.024.648-.12a2.954 2.954 0 0 1-.24-.984zm-6.624-15.672c3.312 0 5.256 1.44 5.256 3.84s-1.968 3.84-5.28 3.84h-3.048v-7.56c1.008-.072 1.92-.12 3.072-.12zM123.768 86h1.224l-5.928-16.824c-.168-.504-.432-.696-.84-.696-.216 0-.432.048-.648.12l-6.12 17.4h1.224l1.608-4.776h7.872L123.768 86zm-9.144-5.76l3.6-10.656 3.6 10.656h-7.2z" fill="#fff"/><path d="M64.685 2.036l.097-.078.023.2-6.263 4.606-.025-.217 1.325-1.122.092-.078-.075-.094-.098.077.098-.077h0V5.25l-.003-.003-.01-.012a4.34 4.34 0 0 0-.172-.203 8.097 8.097 0 0 0-.495-.512c-.41-.39-.98-.844-1.592-1.066-2.146-.78-4.134-.27-5.538 1.158-1.456 1.48-1.084 3.8.07 5.192.346.416.854.612 1.403.679.548.066 1.15.007 1.706-.1a9.31 9.31 0 0 0 .36-.077 7.595 7.595 0 0 1-.056.019c-.956.308-2.153.44-3.193-.21-1.3-.815-1.85-2.488-1.425-4.215.424-1.723 1.82-3.494 4.4-4.466 1.899-.714 3.44-.52 4.626.018 1.192.54 2.036 1.43 2.527 2.115l.07.097.1-.065c.318-.208.9-.656 1.399-1.048.25-.197.481-.381.65-.516z" fill="#fff" stroke="#fff" stroke-width=".25"/><path fill-rule="evenodd" clip-rule="evenodd" d="M70.5 0l6 4.5V32c-.5 2-2.5 4.5-5.5 4.5-3.139 0-5.326-1.487-5.869-3.5H64.5v9.5c-.167 2.167-1.7 6.2-6.5 7l.046-.011c.7-.174 2.454-.61 2.454-2.989 0-.472.006-1.702.014-3.467.037-7.592.121-25.067-.014-34.533l-1.5-1h1L70.5 0zm-6 30.5L68 28v5.5s0 2 2.5 2c2 0 2.5-2 2.5-2V6l-4.5-3-4 3v24.5z" fill="#fff"/><path d="M56.092 39c.5 2 3.5 4 3.5 4s-2.866-2.66-3-4.5c-.255-3.5 3.166-5.167 5-6-4.5 1.5-6 4.5-5.5 6.5z" fill="#fff"/><path fill-rule="evenodd" clip-rule="evenodd" d="M78.39 2.312l-2 2.5-.78-.624 1.617-1.876h1.163z" fill="#fff"/></svg>
